X:1
T:Title
%%score { ( 1 3 ) | ( 2 4 ) }
L:1/8
Q:1/4=114
M:6/4
K:C
V:1 treble nm="Grand Piano"
V:3 treble 
V:2 bass 
V:4 bass 
V:1
 [Ec]6 [Ec]2 [CE]2 [DF]2 | [EG]2 [EG]2 [FA]2 [EG]6 | A6 A2 d2 c2 | B2 B2 A2 G6 | %4
w: Wm.~J.~Kirkpatrick * * *||||
 [Ec]6 [Ec]2 [CE]2 [DF]2 | [EG]2 [EG]2 [FA]2 [EG]4 [EG]2 | A2 d2 c2 B2 A2 B2 | [Ec]12 | %8
w: ||||
 B2 B2 B2 c2 B2 c2 | d6 .[FG]6 | [CGc]2 [CGc]2 [CGc]2 d2 d2 d2 | [Ge]12 | %12
w: ||||
 [Ge]2 [Ge]2 [Ge]2 [^Ge]2 [Gd]2 [GB]2 | [Ad]6 .[FA]6 | G2 G2 c2 B2 G2 d2 | [Ec]12 |] %16
w: ||||
V:2
 [C,G,]6 [C,G,]2 [C,G,]2 [C,G,]2 | [C,C]2 [C,C]2 [C,C]2 [C,C]6 | [F,CF]6 [F,CF]2 [F,A,F]2 [F,DF]2 | %3
 [G,DF]2 [G,DF]2 [G,CF]2 [G,B,F]6 | [C,G,]6 [C,G,]2 [C,G,]2 [C,G,]2 | %5
 [C,C]2 [C,C]2 [C,C]2 [C,C]4 [C,C]2 | [F,CF]2 [F,A,F]2 [F,DF]2 [G,DF]2 [G,DF]2 [G,DF]2 | [C,C]12 | %8
 [G,DF]2 [G,DF]2 [G,DF]2 [G,CE]2 [G,D]2 [G,CE]2 | F6[K:bass] z6 | %10
 E,2 E,2 E,2[K:treble] [G,B,G]2 [G,B,G]2 [G,B,G]2 | [C,C]2 E,2 G,2 C6 | %12
 [C,C]2 [C,C]2 [C,C]2 [E,B,]2 [E,B,]2 [E,B,]2 | [F,A,]2 F,2 F,2 F,2 F,2[K:treble] [F,A,F]2 | %14
 [G,CE]2 [G,CE]2 [G,CE]2 [G,DF]2 [G,B,F]2 [G,B,F]2 | G,4 G,2- G,4 z2 |] %16
V:3
 x12 | x12 | x12 | x12 | x12 | x12 | x12 | x12 | x12 | z2 B,2 B,2 B,2 B,2 [DFG]2 | x12 | %11
 z2 C2 C2 z6 | x12 | z2 A,2 A,2 D2 D2 A2 | x12 | x12 |] %16
V:4
 x12 | x12 | x12 | x12 | x12 | x12 | x12 | x12 | x12 | [G,B,]2[K:bass] G,2 G,2 G,2 G,2 G,2 | %10
 x6[K:treble] x6 | x12 | x12 | x10[K:treble] x2 | x12 | C,2 .E,4 .C,6 |] %16

